plasma/desktoptheme/Materia/icons/onboard.svg

<svg xmlns="http://www.w3.org/2000/svg" width="32" height="32" version="1.1">
 <g id="22-22-onboard" transform="translate(32,-288.53)">
  <rect style="opacity:0.001" width="22" height="22" x="0" y="298.53"/>
  <path style="fill:#dfdfdf;fill-opacity:1" d="m 5.2851562,301.53332 c -1.2662857,0 -2.2851561,1.01887 -2.2851561,2.28516 v 11.42968 c 0,1.26629 1.0188705,2.28516 2.2851561,2.28516 H 16.714844 C 17.981129,317.53332 19,316.51445 19,315.24816 v -11.42968 c 0,-1.26629 -1.018871,-2.28516 -2.285156,-2.28516 z m 2.2167969,2 c 0.7813261,0 1.3913201,0.22266 1.8339845,0.66602 C 9.7788026,304.64259 10,305.25221 10,306.03332 c 0,0.77903 -0.2211974,1.39073 -0.6640624,1.83398 -0.4426644,0.44306 -1.0526583,0.66602 -1.8339845,0.66602 -0.7792221,0 -1.3929214,-0.22296 -1.8378905,-0.66602 -0.4427648,-0.44325 -0.6640625,-1.05495 -0.6640625,-1.83398 0,-0.78111 0.2212977,-1.39073 0.6640625,-1.83398 0.4449691,-0.44336 1.0586684,-0.66602 1.8378905,-0.66602 z m 0,0.90039 c -0.3820461,0 -0.6781606,0.14018 -0.8886719,0.41992 -0.2106114,0.27974 -0.3183594,0.67186 -0.3183593,1.17969 0,0.50574 0.1077479,0.89995 0.3183593,1.17969 0.2105112,0.27974 0.5066257,0.41992 0.8886719,0.41992 0.3841502,0 0.6801138,-0.14018 0.8906251,-0.41992 0.2105112,-0.27974 0.3164062,-0.67395 0.3164062,-1.17969 0,-0.50783 -0.1058951,-0.89995 -0.3164062,-1.17969 -0.2105113,-0.27974 -0.5064748,-0.41992 -0.8906251,-0.41992 z M 13,310.53332 h 1.880859 c 0.674989,0 1.163403,0.10421 1.464844,0.31445 0.304446,0.21024 0.455078,0.54508 0.455078,1.00782 0,0.24322 -0.05485,0.45289 -0.166015,0.625 -0.110161,0.17004 -0.272114,0.2945 -0.482422,0.37695 0.269395,0.0804 0.479738,0.22889 0.626953,0.44531 C 16.926514,313.51928 17,313.78539 17,314.09973 c 0,0.48231 -0.158146,0.84407 -0.474609,1.08007 -0.316464,0.23704 -0.799367,0.35352 -1.445313,0.35352 H 13 Z m 1.253906,0.87695 v 1.0586 h 0.691406 c 0.197292,0 0.347069,-0.0451 0.449219,-0.13477 0.102143,-0.0886 0.154297,-0.22036 0.154297,-0.39453 0,-0.17211 -0.05215,-0.30395 -0.154297,-0.39258 -0.10215,-0.0917 -0.251928,-0.13672 -0.449219,-0.13672 z m -0.002,1.9375 v 1.3086 h 0.734375 c 0.251368,0 0.443174,-0.0548 0.56836,-0.16407 0.128186,-0.10924 0.191406,-0.27554 0.191406,-0.49609 0,-0.21642 -0.06131,-0.37914 -0.1875,-0.48633 -0.126184,-0.10924 -0.318895,-0.16211 -0.572266,-0.16211 z"/>
 </g>
 <g id="onboard">
  <rect style="opacity:0.001" width="32" height="32" x="0" y="0"/>
  <g>
   <path style="opacity:0.2" d="M 10.400391,3 C 5.7467906,3 2,6.7467906 2,11.400391 V 17 22.599609 C 2,27.253209 5.7467906,31 10.400391,31 H 16 21.599609 C 26.253209,31 30,27.253209 30,22.599609 V 17 11.400391 C 30,6.7467906 26.253209,3 21.599609,3 H 16 Z"/>
   <path style="fill:#e4e4e4" d="m 2,16 v 5.6 C 2,26.2536 5.7464,30 10.4,30 H 16 V 16 Z"/>
   <path style="fill:#ebc53d" d="M 10.4,2 C 5.7464,2 2,5.7464 2,10.4 V 16 H 16 V 2 Z"/>
   <path style="fill:#e4e4e4" d="M 16,2 V 16 H 30 V 10.4 C 30,5.7464 26.2536,2 21.6,2 Z"/>
   <path style="fill:#008aff" d="m 16,16 v 14 h 5.6 C 26.2536,30 30,26.2536 30,21.6 V 16 Z"/>
   <path style="fill:#3f3f3f" d="M 9.0037501,5 C 7.7569941,5 6.77445,5.355624 6.0624999,6.0649998 5.354076,6.7741999 5,7.7502239 5,8.9999999 5,10.246448 5.354076,11.22455 6.0624999,11.93375 6.7744507,12.642646 7.7569947,13 9.0037501,13 10.253871,13 11.229236,12.642646 11.937499,11.93375 12.646083,11.22455 13,10.246448 13,8.9999999 13,7.7502239 12.646083,6.7741999 11.937499,6.0649998 11.229235,5.355624 10.253871,5 9.0037501,5 Z m 0,1.4399998 c 0.61464,0 1.0881809,0.224916 1.4249999,0.6725001 0.336817,0.447584 0.506249,1.074972 0.506249,1.8875 0,0.8091841 -0.169432,1.4399151 -0.506249,1.8874991 -0.336818,0.447584 -0.8103599,0.67125 -1.4249999,0.67125 -0.611274,0 -1.085682,-0.223666 -1.4225,-0.67125 C 7.2442727,10.439915 7.0725,9.809184 7.0725,8.9999999 c 0,-0.812528 0.1717727,-1.439916 0.5087501,-1.8875 0.336818,-0.4475841 0.811226,-0.6725001 1.4225,-0.6725001 z"/>
   <path style="fill:#3f3f3f" d="m 20,19 v 8 h 3.32875 c 1.033514,0 1.806158,-0.186986 2.3125,-0.56625 0.50634,-0.3776 0.75875,-0.955804 0.75875,-1.7275 0,-0.502944 -0.116952,-0.928712 -0.3525,-1.275 -0.235545,-0.346272 -0.572718,-0.58386 -1.00375,-0.7125 0.336493,-0.13192 0.596242,-0.331686 0.7725,-0.60375 0.177864,-0.275376 0.265,-0.610848 0.265,-1 0,-0.740384 -0.240387,-1.276116 -0.7275,-1.6125 C 24.871444,19.166116 24.089982,19 23.01,19 Z m 2.00625,1.4025 h 1.10625 c 0.315666,0 0.55531,0.07203 0.71875,0.21875 0.163435,0.141808 0.2475,0.353374 0.2475,0.62875 0,0.278672 -0.08407,0.48949 -0.2475,0.63125 -0.16344,0.143472 -0.403082,0.215 -0.71875,0.215 h -1.10625 z m -0.0025,3.1 h 1.175 c 0.405395,0 0.713105,0.08522 0.915,0.26 0.201904,0.171504 0.3,0.431228 0.3,0.7775 0,0.35288 -0.101152,0.618966 -0.30625,0.79375 -0.200298,0.174832 -0.506561,0.2625 -0.90875,0.2625 h -1.175 z"/>
   <path style="opacity:0.2;fill:#ffffff" d="M 10.400391,2 C 5.7467902,2 2,5.7467902 2,10.400391 v 1 C 2,6.7467902 5.7467902,3 10.400391,3 H 16 21.599609 C 26.253209,3 30,6.7467902 30,11.400391 v -1 C 30,5.7467902 26.253209,2 21.599609,2 H 16 Z"/>
   <rect style="opacity:0.2" width="14" height="1" x="16" y="16"/>
   <rect style="opacity:0.2;fill:#ffffff" width="14" height="1" x="2" y="16"/>
  </g>
 </g>
</svg>

<?xml version="1.0" encoding="UTF-8"?>
<svg width="32" height="32" version="1.1" xmlns="http://www.w3.org/2000/svg">
 <g id="22-22-onboard" transform="translate(32,-288.53)">
  <rect y="298.53" width="22" height="22" opacity=".001"/>
  <path d="m5.2852 301.53c-1.2663 0-2.2852 1.0189-2.2852 2.2852v11.43c0 1.2663 1.0189 2.2852 2.2852 2.2852h11.43c1.2663 0 2.2852-1.0189 2.2852-2.2852v-11.43c0-1.2663-1.0189-2.2852-2.2852-2.2852zm2.2168 2c0.78133 0 1.3913 0.22266 1.834 0.66602 0.44286 0.44325 0.66406 1.0529 0.66406 1.834 0 0.77903-0.2212 1.3907-0.66406 1.834-0.44266 0.44306-1.0527 0.66602-1.834 0.66602-0.77922 0-1.3929-0.22296-1.8379-0.66602-0.44276-0.44325-0.66406-1.055-0.66406-1.834 0-0.78111 0.2213-1.3907 0.66406-1.834 0.44497-0.44336 1.0587-0.66602 1.8379-0.66602zm0 0.90039c-0.38205 0-0.67816 0.14018-0.88867 0.41992-0.21061 0.27974-0.31836 0.67186-0.31836 1.1797 0 0.50574 0.10775 0.89995 0.31836 1.1797 0.21051 0.27974 0.50663 0.41992 0.88867 0.41992 0.38415 0 0.68011-0.14018 0.89063-0.41992 0.21051-0.27974 0.31641-0.67395 0.31641-1.1797 0-0.50783-0.1059-0.89995-0.31641-1.1797-0.21051-0.27974-0.50647-0.41992-0.89063-0.41992zm5.498 6.0996h1.8809c0.67499 0 1.1634 0.10421 1.4648 0.31445 0.30445 0.21024 0.45508 0.54508 0.45508 1.0078 0 0.24322-0.05485 0.45289-0.16602 0.625-0.11016 0.17004-0.27211 0.2945-0.48242 0.37695 0.2694 0.0804 0.47974 0.22889 0.62695 0.44531 0.14722 0.21643 0.2207 0.48254 0.2207 0.79688 0 0.48231-0.15815 0.84407-0.47461 1.0801-0.31646 0.23704-0.79937 0.35352-1.4453 0.35352h-2.0801zm1.2539 0.87695v1.0586h0.69141c0.19729 0 0.34707-0.0451 0.44922-0.13477 0.10214-0.0886 0.1543-0.22036 0.1543-0.39453 0-0.17211-0.05215-0.30395-0.1543-0.39258-0.10215-0.0917-0.25193-0.13672-0.44922-0.13672zm-2e-3 1.9375v1.3086h0.73438c0.25137 0 0.44317-0.0548 0.56836-0.16407 0.12819-0.10924 0.19141-0.27554 0.19141-0.49609 0-0.21642-0.06131-0.37914-0.1875-0.48633-0.12618-0.10924-0.3189-0.16211-0.57227-0.16211z" fill="#dfdfdf"/>
 </g>
 <g id="onboard">
  <rect width="32" height="32" opacity=".001"/>
  <path d="m10.4 3c-4.6536 0-8.4004 3.7468-8.4004 8.4004v11.199c0 4.6536 3.7468 8.4004 8.4004 8.4004h11.199c4.6536 0 8.4004-3.7468 8.4004-8.4004v-11.199c0-4.6536-3.7468-8.4004-8.4004-8.4004h-5.5996z" opacity=".2"/>
  <path d="m2 16v5.6c0 4.6536 3.7464 8.4 8.4 8.4h5.6v-14z" fill="#e4e4e4"/>
  <path d="m10.4 2c-4.6536 0-8.4 3.7464-8.4 8.4v5.6h14v-14z" fill="#ebc53d"/>
  <path d="m16 2v14h14v-5.6c0-4.6536-3.7464-8.4-8.4-8.4z" fill="#e4e4e4"/>
  <path d="m16 16v14h5.6c4.6536 0 8.4-3.7464 8.4-8.4v-5.6z" fill="#008aff"/>
  <path d="m9.0038 5c-1.2468 0-2.2293 0.35562-2.9413 1.065-0.70842 0.7092-1.0625 1.6852-1.0625 2.935 0 1.2464 0.35408 2.2246 1.0625 2.9338 0.71195 0.7089 1.6945 1.0662 2.9413 1.0662 1.2501 0 2.2255-0.35735 2.9337-1.0662 0.70858-0.7092 1.0625-1.6873 1.0625-2.9338 0-1.2498-0.35392-2.2258-1.0625-2.935-0.70826-0.70938-1.6836-1.065-2.9337-1.065zm0 1.44c0.61464 0 1.0882 0.22492 1.425 0.6725 0.33682 0.44758 0.50625 1.075 0.50625 1.8875 0 0.80918-0.16943 1.4399-0.50625 1.8875-0.33682 0.44758-0.81036 0.67125-1.425 0.67125-0.61127 0-1.0857-0.22367-1.4225-0.67125-0.33698-0.44758-0.50875-1.0783-0.50875-1.8875 0-0.81253 0.17177-1.4399 0.50875-1.8875 0.33682-0.44758 0.81123-0.6725 1.4225-0.6725z" fill="#3f3f3f"/>
  <path d="m20 19v8h3.3288c1.0335 0 1.8062-0.18699 2.3125-0.56625 0.50634-0.3776 0.75875-0.9558 0.75875-1.7275 0-0.50294-0.11695-0.92871-0.3525-1.275-0.23554-0.34627-0.57272-0.58386-1.0038-0.7125 0.33649-0.13192 0.59624-0.33169 0.7725-0.60375 0.17786-0.27538 0.265-0.61085 0.265-1 0-0.74038-0.24039-1.2761-0.7275-1.6125-0.48231-0.33638-1.2638-0.5025-2.3438-0.5025zm2.0062 1.4025h1.1062c0.31567 0 0.55531 0.07203 0.71875 0.21875 0.16344 0.14181 0.2475 0.35337 0.2475 0.62875 0 0.27867-0.08407 0.48949-0.2475 0.63125-0.16344 0.14347-0.40308 0.215-0.71875 0.215h-1.1062zm-0.0025 3.1h1.175c0.4054 0 0.7131 0.08522 0.915 0.26 0.2019 0.1715 0.3 0.43123 0.3 0.7775 0 0.35288-0.10115 0.61897-0.30625 0.79375-0.2003 0.17483-0.50656 0.2625-0.90875 0.2625h-1.175z" fill="#3f3f3f"/>
  <path d="m10.4 2c-4.6536 0-8.4004 3.7468-8.4004 8.4004v1c0-4.6536 3.7468-8.4004 8.4004-8.4004h11.199c4.6536 0 8.4004 3.7468 8.4004 8.4004v-1c0-4.6536-3.7468-8.4004-8.4004-8.4004h-5.5996z" fill="#fff" opacity=".2"/>
  <rect x="16" y="16" width="14" height="1" opacity=".2"/>
  <rect x="2" y="16" width="14" height="1" fill="#fff" opacity=".2"/>
 </g>
</svg>
